resources/svg/edge.svg

<svg xmlns="http://www.w3.org/2000/svg" viewBox="0 0 15 15" fill="currentColor"><path d="M7.49957 3.66854e-08C5.5287 -0.000194767 3.63697 0.775442 2.23352 2.15915C0.833022 3.53996 0.0310988 5.41552 0.00019145 7.38167L0 7.39456L0.00617562 7.39465L0.00614557 7.40712C-0.00365668 8.53794 0.238453 9.65677 0.714912 10.6824L0.715628 10.6839C1.49566 12.3482 2.85971 13.6681 4.54878 14.393C6.23784 15.1178 8.13428 15.1972 9.87798 14.6159L9.87659 14.6116L9.94394 14.589L9.9481 14.5876C11.5621 14.0296 12.9381 12.9387 13.8495 11.4945C13.9347 11.3599 13.9727 11.2007 13.9575 11.0421C13.9423 10.883 13.8745 10.7335 13.7649 10.6173C13.6552 10.5011 13.51 10.4247 13.3521 10.4002C13.1969 10.3762 13.0382 10.4036 12.9002 10.4782C12.733 10.5655 12.5605 10.6424 12.3839 10.7086C11.8125 10.9224 11.2073 11.0313 10.5972 11.0301C8.19174 11.0301 6.25641 9.38919 6.25452 7.46879C6.25732 7.25231 6.31761 7.04045 6.42923 6.85491C6.53816 6.67386 6.69213 6.52425 6.876 6.42058L6.88717 6.41531C7.05467 6.33609 7.24664 6.24954 7.49381 6.25407L7.49933 6.25411C7.69528 6.25554 7.88824 6.30232 8.06308 6.3908C8.23792 6.47927 8.3899 6.60704 8.5071 6.76407C8.65101 6.95621 8.73643 7.18617 8.75284 7.4247C8.75543 7.47306 8.75652 7.51579 8.75652 7.55151C8.75652 7.70924 8.66206 8.03065 8.44639 8.31866L8.43697 8.32774C8.4167 8.34716 8.37616 8.38603 8.33544 8.43603C8.24685 8.54482 8.14953 8.71582 8.14953 8.94978C8.14953 9.32505 8.39136 9.59439 8.62127 9.75502L8.62217 9.75565C9.1236 10.1043 9.79752 10.2325 10.2841 10.2847C10.7881 10.3387 11.1993 10.3198 11.1803 10.3198L11.1815 10.3198C11.853 10.3182 12.5118 10.1366 13.0893 9.79405C13.6693 9.45504 14.1506 8.9704 14.4857 8.38812C14.8207 7.80602 14.9978 7.14654 14.9996 6.47496C15.014 5.18934 14.5613 4.30511 14.357 3.90597L14.3247 3.84273C13.0643 1.37732 10.369 3.66854e-08 7.49957 3.66854e-08Z" fill="black"/></svg>

<svg xmlns="http://www.w3.org/2000/svg" viewBox="0 0 15 15" fill="currentColor"><path d="M7.5 0A7.5 7.5 0 000 7.382v.013h.006v.012c-.01 1.13.232 2.25.709 3.275v.002a7.5 7.5 0 009.163 3.932l-.001-.004.067-.023.004-.001a7.518 7.518 0 003.902-3.093.718.718 0 00-.95-1.017c-.167.088-.34.164-.516.23a5.07 5.07 0 01-1.787.322c-2.405 0-4.34-1.64-4.342-3.561a1.221 1.221 0 01.621-1.048l.011-.006c.168-.079.36-.165.607-.16h.005a1.269 1.269 0 011.254 1.17 2.4 2.4 0 01.004.127c0 .157-.095.479-.31.767l-.01.009c-.02.02-.06.058-.102.108a.803.803 0 00-.185.514c0 .375.241.644.471.805h.001c.502.35 1.176.477 1.662.53.504.054.915.035.896.035h.002a3.757 3.757 0 001.907-.526A3.856 3.856 0 0015 6.475c.015-1.286-.438-2.17-.642-2.569l-.032-.063C13.065 1.377 10.369 0 7.5 0z" fill="currentColor"/></svg>
